X:1
T:title
M:4/4
Q:120
L:1/8
R:Reel
K:C
 _c' _d ^b ^e'2 ^d'Ba |  ^d'2 _D4 ^A _c' |  _F4a'2 _a ^d' | d _aa'a2 _e'3 |  _f _g2 _G2c'2 _g |  _c2 _B4d'2 | d2G ^E4 _e |  _F2 _f'3b3 | 